images/indikatorenset/4877.svg

<?xml version="1.0" standalone="no"?><!DOCTYPE svg PUBLIC "-//W3C//DTD SVG 1.1//EN" "http://www.w3.org/Graphics/SVG/1.1/DTD/svg11.dtd"><svg xmlns:xlink="http://www.w3.org/1999/xlink" version="1.1" class="highcharts-root" style="font-family:arial;font-size:12px;" xmlns="http://www.w3.org/2000/svg" width="485" height="415"><desc>Created with Highstock 5.0.14</desc><defs><clipPath id="highcharts-hzobtyq-6"><rect x="0" y="0" width="275" height="302" fill="none"></rect></clipPath><clipPath id="highcharts-hzobtyq-7"><rect x="0" y="0" width="275" height="302" fill="none"></rect></clipPath></defs><rect fill="#fbfbfb" class="highcharts-background" x="0" y="0" width="485" height="415" rx="0" ry="0"></rect><rect fill="none" class="highcharts-plot-background" x="173" y="75" width="302" height="275"></rect><g class="highcharts-pane-group"></g><g class="highcharts-grid highcharts-xaxis-grid "><path fill="none" class="highcharts-grid-line" d="M 173 103.5 L 475 103.5" opacity="1"></path><path fill="none" class="highcharts-grid-line" d="M 173 130.5 L 475 130.5" opacity="1"></path><path fill="none" class="highcharts-grid-line" d="M 173 158.5 L 475 158.5" opacity="1"></path><path fill="none" class="highcharts-grid-line" d="M 173 185.5 L 475 185.5" opacity="1"></path><path fill="none" class="highcharts-grid-line" d="M 173 213.5 L 475 213.5" opacity="1"></path><path fill="none" class="highcharts-grid-line" d="M 173 240.5 L 475 240.5" opacity="1"></path><path fill="none" class="highcharts-grid-line" d="M 173 268.5 L 475 268.5" opacity="1"></path><path fill="none" class="highcharts-grid-line" d="M 173 295.5 L 475 295.5" opacity="1"></path><path fill="none" class="highcharts-grid-line" d="M 173 323.5 L 475 323.5" opacity="1"></path><path fill="none" class="highcharts-grid-line" d="M 173 350.5 L 475 350.5" opacity="1"></path><path fill="none" class="highcharts-grid-line" d="M 173 75.5 L 475 75.5" opacity="1"></path></g><g class="highcharts-grid highcharts-yaxis-grid "><path fill="none" stroke="#B9CFD7" stroke-width="0.5" class="highcharts-grid-line" d="M 172.75 75 L 172.75 350" opacity="1"></path><path fill="none" stroke="#B9CFD7" stroke-width="0.5" class="highcharts-grid-line" d="M 248.75 75 L 248.75 350" opacity="1"></path><path fill="none" stroke="#B9CFD7" stroke-width="0.5" class="highcharts-grid-line" d="M 323.75 75 L 323.75 350" opacity="1"></path><path fill="none" stroke="#B9CFD7" stroke-width="0.5" class="highcharts-grid-line" d="M 399.75 75 L 399.75 350" opacity="1"></path><path fill="none" stroke="#B9CFD7" stroke-width="0.5" class="highcharts-grid-line" d="M 475.25 75 L 475.25 350" opacity="1"></path></g><rect fill="none" class="highcharts-plot-border" x="173" y="75" width="302" height="275"></rect><g class="highcharts-axis highcharts-xaxis "><path fill="none" class="highcharts-tick" stroke="#FFFFFF" stroke-width="1" d="M 173 103.5 L 163 103.5" opacity="1"></path><path fill="none" class="highcharts-tick" stroke="#FFFFFF" stroke-width="1" d="M 173 130.5 L 163 130.5" opacity="1"></path><path fill="none" class="highcharts-tick" stroke="#FFFFFF" stroke-width="1" d="M 173 158.5 L 163 158.5" opacity="1"></path><path fill="none" class="highcharts-tick" stroke="#FFFFFF" stroke-width="1" d="M 173 185.5 L 163 185.5" opacity="1"></path><path fill="none" class="highcharts-tick" stroke="#FFFFFF" stroke-width="1" d="M 173 213.5 L 163 213.5" opacity="1"></path><path fill="none" class="highcharts-tick" stroke="#FFFFFF" stroke-width="1" d="M 173 240.5 L 163 240.5" opacity="1"></path><path fill="none" class="highcharts-tick" stroke="#FFFFFF" stroke-width="1" d="M 173 268.5 L 163 268.5" opacity="1"></path><path fill="none" class="highcharts-tick" stroke="#FFFFFF" stroke-width="1" d="M 173 295.5 L 163 295.5" opacity="1"></path><path fill="none" class="highcharts-tick" stroke="#FFFFFF" stroke-width="1" d="M 173 323.5 L 163 323.5" opacity="1"></path><path fill="none" class="highcharts-tick" stroke="#FFFFFF" stroke-width="1" d="M 173 350.5 L 163 350.5" opacity="1"></path><path fill="none" class="highcharts-tick" stroke="#FFFFFF" stroke-width="1" d="M 173 74.5 L 163 74.5" opacity="1"></path><path fill="none" class="highcharts-axis-line" stroke="#B9CFD7" stroke-width="0.5" d="M 172.75 75 L 172.75 350"></path></g><g class="highcharts-axis highcharts-yaxis "><path fill="none" class="highcharts-axis-line" d="M 173 350 L 475 350"></path></g><g class="highcharts-series-group"><g class="highcharts-series highcharts-series-0 highcharts-column-series highcharts-color-undefined " transform="translate(475,350) rotate(90) scale(-1,1) scale(1 1)" clip-path="url(#highcharts-hzobtyq-7)"><rect x="262" y="63" width="7" height="240" fill="#73BA7C" class="highcharts-point"></rect><rect x="235" y="303" width="7" height="0" fill="#73BA7C" class="highcharts-point"></rect><rect x="207" y="55" width="7" height="248" fill="#73BA7C" class="highcharts-point"></rect><rect x="180" y="210" width="7" height="93" fill="#73BA7C" class="highcharts-point"></rect><rect x="152" y="210" width="7" height="93" fill="#73BA7C" class="highcharts-point"></rect><rect x="125" y="274" width="7" height="29" fill="#73BA7C" class="highcharts-point"></rect><rect x="97" y="271" width="7" height="32" fill="#73BA7C" class="highcharts-point"></rect><rect x="70" y="192" width="7" height="111" fill="#73BA7C" class="highcharts-point"></rect><rect x="42" y="73" width="7" height="230" fill="#73BA7C" class="highcharts-point"></rect><rect x="15" y="139" width="7" height="164" fill="#73BA7C" class="highcharts-point"></rect></g><g class="highcharts-markers highcharts-series-0 highcharts-column-series highcharts-color-undefined " transform="translate(475,350) rotate(90) scale(-1,1) scale(1 1)" clip-path="none"></g><g class="highcharts-series highcharts-series-1 highcharts-column-series highcharts-color-undefined " transform="translate(475,350) rotate(90) scale(-1,1) scale(1 1)" clip-path="url(#highcharts-hzobtyq-7)"><rect x="254" y="216" width="7" height="87" fill="#FABD24" class="highcharts-point"></rect><rect x="226" y="303" width="7" height="0" fill="#FABD24" class="highcharts-point"></rect><rect x="199" y="222" width="7" height="81" fill="#FABD24" class="highcharts-point"></rect><rect x="171" y="252" width="7" height="51" fill="#FABD24" class="highcharts-point"></rect><rect x="144" y="155" width="7" height="148" fill="#FABD24" class="highcharts-point"></rect><rect x="116" y="209" width="7" height="94" fill="#FABD24" class="highcharts-point"></rect><rect x="89" y="178" width="7" height="125" fill="#FABD24" class="highcharts-point"></rect><rect x="61" y="303" width="7" height="0" fill="#FABD24" class="highcharts-point"></rect><rect x="34" y="253" width="7" height="50" fill="#FABD24" class="highcharts-point"></rect><rect x="6" y="192" width="7" height="111" fill="#FABD24" class="highcharts-point"></rect></g><g class="highcharts-markers highcharts-series-1 highcharts-column-series highcharts-color-undefined " transform="translate(475,350) rotate(90) scale(-1,1) scale(1 1)" clip-path="none"></g></g><text x="10" text-anchor="start" class="highcharts-title" style="color:#000000;font-size:14px;font-weight:bold;fill:#000000;" y="21"><tspan>Rückwanderungsquote der Ausländer nach</tspan><tspan dy="17" x="10">Staatsangehörigkeitund Alter 2015</tspan><title>Rückwanderungsquote der Ausländer nach Staatsangehörigkeitund Alter 2015</title></text><g class="highcharts-legend" transform="translate(128,45)"><rect fill="none" class="highcharts-legend-box" rx="0" ry="0" x="0" y="0" width="173" height="25" visibility="visible"></rect><g><g><g class="highcharts-legend-item highcharts-column-series highcharts-color-undefined highcharts-series-0" transform="translate(8,3)"><text x="21" style="color:#333333;font-size:12px;font-weight:normal;cursor:pointer;fill:#333333;" text-anchor="start" y="15"><tspan>15-64 J.</tspan></text><rect x="2" y="4" width="12" height="12" fill="#73BA7C" class="highcharts-point"></rect></g><g class="highcharts-legend-item highcharts-column-series highcharts-color-undefined highcharts-series-1" transform="translate(92.328125,3)"><text x="21" y="15" style="color:#333333;font-size:12px;font-weight:normal;cursor:pointer;fill:#333333;" text-anchor="start"><tspan>65 u.m. J.</tspan></text><rect x="2" y="4" width="12" height="12" fill="#FABD24" class="highcharts-point"></rect></g></g></g></g><g class="highcharts-axis-labels highcharts-xaxis-labels "><text x="158" style="color:#000000;cursor:default;font-size:11px;fill:#000000;" text-anchor="end" transform="translate(0,0)" y="93" opacity="1"><tspan>Ausland</tspan></text><text x="158" style="color:#000000;cursor:default;font-size:11px;fill:#000000;" text-anchor="end" transform="translate(0,0)" y="127" opacity="1"></text><text x="158" style="color:#000000;cursor:default;font-size:11px;fill:#000000;" text-anchor="end" transform="translate(0,0)" y="148" opacity="1"><tspan>Deutschland</tspan></text><text x="158" style="color:#000000;cursor:default;font-size:11px;fill:#000000;" text-anchor="end" transform="translate(0,0)" y="176" opacity="1"><tspan>Italien</tspan></text><text x="158" style="color:#000000;cursor:default;font-size:11px;fill:#000000;" text-anchor="end" transform="translate(0,0)" y="203" opacity="1"><tspan>Spanien</tspan></text><text x="158" style="color:#000000;cursor:default;font-size:11px;fill:#000000;" text-anchor="end" transform="translate(0,0)" y="231" opacity="1"><tspan>Türkei</tspan></text><text x="158" style="color:#000000;cursor:default;font-size:11px;fill:#000000;" text-anchor="end" transform="translate(0,0)" y="258" opacity="1"><tspan>Ehem. Jugoslawien ohne SLO</tspan></text><text x="158" style="color:#000000;cursor:default;font-size:11px;fill:#000000;" text-anchor="end" transform="translate(0,0)" y="286" opacity="1"><tspan>Maghreb und Ägypten</tspan></text><text x="158" style="color:#000000;cursor:default;font-size:11px;fill:#000000;" text-anchor="end" transform="translate(0,0)" y="313" opacity="1"><tspan>EU-Oststaaten</tspan></text><text x="158" style="color:#000000;cursor:default;font-size:11px;fill:#000000;" text-anchor="end" transform="translate(0,0)" y="341" opacity="1"><tspan>Mittel- und Südamerika</tspan></text></g><g class="highcharts-axis-labels highcharts-yaxis-labels "><text x="173" style="color:#000000;cursor:default;font-size:11px;fill:#000000;" text-anchor="middle" transform="translate(0,0)" y="369" opacity="1"><tspan>0</tspan></text><text x="248.5" style="color:#000000;cursor:default;font-size:11px;fill:#000000;" text-anchor="middle" transform="translate(0,0)" y="369" opacity="1"><tspan>20</tspan></text><text x="324" style="color:#000000;cursor:default;font-size:11px;fill:#000000;" text-anchor="middle" transform="translate(0,0)" y="369" opacity="1"><tspan>40</tspan></text><text x="399.5" style="color:#000000;cursor:default;font-size:11px;fill:#000000;" text-anchor="middle" transform="translate(0,0)" y="369" opacity="1"><tspan>60</tspan></text><text x="468.890625" style="color:#000000;cursor:default;font-size:11px;fill:#000000;" text-anchor="middle" transform="translate(0,0)" y="369" opacity="1"><tspan>80</tspan></text></g><text x="10" class="highcharts-credits" text-anchor="start" style="cursor:default;color:#000000;font-size:10px;fill:#000000;" y="400"><tspan>Quelle: Statistisches Amt Basel-Stadt, kantonale Bevölkerungsstatistik</tspan></text></svg>

<svg class="highcharts-root" xmlns="http://www.w3.org/2000/svg" width="485" height="415" font-family="arial" font-size="12">
    <defs>
        <clipPath id="a">
            <path fill="none" d="M0 0h275v302H0z"/>
        </clipPath>
    </defs>
    <rect fill="#fbfbfb" class="highcharts-background" width="485" height="415" rx="0" ry="0"/>
    <path fill="none" class="highcharts-plot-background" d="M173 75h302v275H173z"/>
    <g class="highcharts-grid highcharts-xaxis-grid">
        <path fill="none" class="highcharts-grid-line" d="M173 103.5h302m-302 27h302m-302 28h302m-302 27h302m-302 28h302m-302 27h302m-302 28h302m-302 27h302m-302 28h302m-302 27h302m-302-275h302"/>
    </g>
    <g class="highcharts-grid highcharts-yaxis-grid">
        <path fill="none" stroke="#B9CFD7" stroke-width=".5" class="highcharts-grid-line" d="M172.75 75v275m76-275v275m75-275v275m76-275v275m75.5-275v275"/>
    </g>
    <path fill="none" class="highcharts-plot-border" d="M173 75h302v275H173z"/>
    <g class="highcharts-axis highcharts-xaxis">
        <path fill="none" class="highcharts-tick" stroke="#FFF" d="M173 103.5h-10m10 27h-10m10 28h-10m10 27h-10m10 28h-10m10 27h-10m10 28h-10m10 27h-10m10 28h-10m10 27h-10m10-276h-10"/>
        <path fill="none" class="highcharts-axis-line" stroke="#B9CFD7" stroke-width=".5" d="M172.75 75v275"/>
    </g>
    <g class="highcharts-axis highcharts-yaxis">
        <path fill="none" class="highcharts-axis-line" d="M173 350h302"/>
    </g>
    <g class="highcharts-series-group">
        <g class="highcharts-series highcharts-series-0 highcharts-column-series highcharts-color-undefined" transform="matrix(0 -1 -1 0 475 350)" clip-path="url(#a)">
            <path fill="#73BA7C" class="highcharts-point" d="M262 63h7v240h-7zm-55-8h7v248h-7zm-27 155h7v93h-7zm-28 0h7v93h-7zm-27 64h7v29h-7zm-28-3h7v32h-7zm-27-79h7v111h-7zM42 73h7v230h-7zm-27 66h7v164h-7z"/>
        </g>
        <g class="highcharts-series highcharts-series-1 highcharts-column-series highcharts-color-undefined" transform="matrix(0 -1 -1 0 475 350)" clip-path="url(#a)">
            <path fill="#FABD24" class="highcharts-point" d="M254 216h7v87h-7zm-55 6h7v81h-7zm-28 30h7v51h-7zm-27-97h7v148h-7zm-28 54h7v94h-7zm-27-31h7v125h-7zm-55 75h7v50h-7zM6 192h7v111H6z"/>
        </g>
    </g>
    <text x="10" class="highcharts-title" y="21" color="#000" font-size="14" font-weight="700">
        <tspan>Rückwanderungsquote der Ausländer nach</tspan><tspan dy="17" x="10">Staatsangehörigkeitund Alter 2015</tspan><title>Rückwanderungsquote der Ausländer nach Staatsangehörigkeitund Alter 2015</title>
    </text>
    <g class="highcharts-legend" transform="translate(128 45)">
        <rect fill="none" class="highcharts-legend-box" rx="0" ry="0" width="173" height="25"/>
        <g class="highcharts-legend-item highcharts-column-series highcharts-color-undefined highcharts-series-0">
            <text x="21" y="15" color="#333" font-weight="400" cursor="pointer" fill="#333" transform="translate(8 3)">
                <tspan>15-64 J.</tspan>
            </text>
            <path fill="#73BA7C" class="highcharts-point" d="M10 7h12v12H10z"/>
        </g>
        <g class="highcharts-legend-item highcharts-column-series highcharts-color-undefined highcharts-series-1">
            <text x="21" y="15" color="#333" font-weight="400" cursor="pointer" fill="#333" transform="translate(92.328 3)">
                <tspan>65 u.m. J.</tspan>
            </text>
            <path fill="#FABD24" class="highcharts-point" d="M94.328 7h12v12h-12z"/>
        </g>
    </g>
    <g class="highcharts-axis-labels highcharts-xaxis-labels" text-anchor="end" color="#000" cursor="default" font-size="11">
        <text x="158" y="93">
            <tspan>Ausland</tspan>
        </text>
        <text x="158" y="148">
            <tspan>Deutschland</tspan>
        </text>
        <text x="158" y="176">
            <tspan>Italien</tspan>
        </text>
        <text x="158" y="203">
            <tspan>Spanien</tspan>
        </text>
        <text x="158" y="231">
            <tspan>Türkei</tspan>
        </text>
        <text x="158" y="258">
            <tspan>Ehem. Jugoslawien ohne SLO</tspan>
        </text>
        <text x="158" y="286">
            <tspan>Maghreb und Ägypten</tspan>
        </text>
        <text x="158" y="313">
            <tspan>EU-Oststaaten</tspan>
        </text>
        <text x="158" y="341">
            <tspan>Mittel- und Südamerika</tspan>
        </text>
    </g>
    <g class="highcharts-axis-labels highcharts-yaxis-labels" text-anchor="middle" color="#000" cursor="default" font-size="11">
        <text x="173" y="369">
            <tspan>0</tspan>
        </text>
        <text x="248.5" y="369">
            <tspan>20</tspan>
        </text>
        <text x="324" y="369">
            <tspan>40</tspan>
        </text>
        <text x="399.5" y="369">
            <tspan>60</tspan>
        </text>
        <text x="468.891" y="369">
            <tspan>80</tspan>
        </text>
    </g>
    <text x="10" class="highcharts-credits" y="400" cursor="default" color="#000" font-size="10">
        <tspan>Quelle: Statistisches Amt Basel-Stadt, kantonale Bevölkerungsstatistik</tspan>
    </text>
</svg>
